X:0093
T:The Bottom of the Punch Bowl.
M:C
L:1/8
Q:1/2=104
I: :: ::
Z:Jack Campin * www.campin.me.uk * 2009
K:D
FE|D2D2 d3 e|d2D2 FGAF|E2E2 efgf| e2E2 FG
AF|D2D2 d3 e|fedB d3 A|B3 F A3 E| F2D2 D2:|
de|fedB ABde|fedB d3 A|B3 d ABde|Tf2e2 e2
de|fedB ABde|fedB d3 A|BdBF ABAE| F2D2 D2:|

